public/assets/icons/file-video-light.svg

<svg width="241" height="118" viewBox="0 0 241 118" fill="none" xmlns="http://www.w3.org/2000/svg">
<path d="M15 60C15 32.3858 37.3858 10 65 10H241V118H15V60Z" fill="#F2F4F8"/>
<g opacity="0.4" filter="url(#filter0_f_228_4006)">
<circle cx="48" cy="48" r="33" fill="#3DD9B3"/>
</g>
<circle cx="48" cy="43" r="33" fill="#3DD9B3"/>
<path d="M60.2007 35.2273C59.654 34.934 58.5073 34.6273 56.9473 35.7207L54.9873 37.1073C54.8407 32.9607 53.0407 31.334 48.6673 31.334H40.6673C36.1073 31.334 34.334 33.1073 34.334 37.6673V48.334C34.334 51.4006 36.0007 54.6673 40.6673 54.6673H48.6673C53.0407 54.6673 54.8407 53.0406 54.9873 48.894L56.9473 50.2806C57.774 50.8673 58.494 51.054 59.0673 51.054C59.5607 51.054 59.9473 50.9073 60.2007 50.774C60.7473 50.494 61.6673 49.734 61.6673 47.8273V38.174C61.6673 36.2673 60.7473 35.5073 60.2007 35.2273ZM46.6673 42.174C45.294 42.174 44.1607 41.054 44.1607 39.6673C44.1607 38.2807 45.294 37.1607 46.6673 37.1607C48.0407 37.1607 49.174 38.2807 49.174 39.6673C49.174 41.054 48.0407 42.174 46.6673 42.174Z" fill="white"/>
<mask id="mask0_228_4006" style="mask-type:alpha" maskUnits="userSpaceOnUse" x="15" y="32" width="226" height="86">
<rect x="15" y="32" width="226" height="86" fill="#D9D9D9"/>
</mask>
<g mask="url(#mask0_228_4006)">
<path d="M15.1325 132.681V114.105C14.3273 105.471 16.2976 88.3456 46.836 86.2132C74.8842 84.2548 80.8534 80.3014 95.5529 54.5306C107.653 33.3174 126.126 32.9157 143.043 32.5477C145.259 32.4995 147.449 32.4519 149.594 32.3582C160.963 31.8613 198.081 31.802 223.5 32.0005C252 32 241 29.7101 241 40.5007V224.287C241 235.175 232.146 244.001 221.225 244.001H34.775C23.8536 244.001 15 235.175 15 224.287V132.681H15.1325Z" fill="white"/>
</g>
<defs>
<filter id="filter0_f_228_4006" x="0.875" y="0.875" width="94.25" height="94.25" filterUnits="userSpaceOnUse" color-interpolation-filters="sRGB">
<feFlood flood-opacity="0" result="BackgroundImageFix"/>
<feBlend mode="normal" in="SourceGraphic" in2="BackgroundImageFix" result="shape"/>
<feGaussianBlur stdDeviation="7.0625" result="effect1_foregroundBlur_228_4006"/>
</filter>
</defs>
</svg>

<svg xmlns="http://www.w3.org/2000/svg" width="241" height="118" fill="none"><path fill="#F2F4F8" d="M15 60c0-27.614 22.386-50 50-50h176v108H15z"/><g filter="url(#a)" opacity=".4"><circle cx="48" cy="48" r="33" fill="#3DD9B3"/></g><circle cx="48" cy="43" r="33" fill="#3DD9B3"/><path fill="#fff" d="M60.2 35.227c-.546-.293-1.693-.6-3.253.494l-1.96 1.386c-.146-4.146-1.946-5.773-6.32-5.773h-8c-4.56 0-6.333 1.773-6.333 6.333v10.667c0 3.067 1.667 6.333 6.333 6.333h8c4.374 0 6.174-1.626 6.32-5.773l1.96 1.387c.827.586 1.547.773 2.12.773.494 0 .88-.147 1.134-.28.546-.28 1.466-1.04 1.466-2.947v-9.653c0-1.907-.92-2.667-1.466-2.947m-13.533 6.947a2.51 2.51 0 0 1-2.506-2.507 2.51 2.51 0 0 1 2.506-2.506 2.51 2.51 0 0 1 2.507 2.506 2.51 2.51 0 0 1-2.507 2.507"/><mask id="b" width="226" height="86" x="15" y="32" maskUnits="userSpaceOnUse" style="mask-type:alpha"><path fill="#D9D9D9" d="M15 32h226v86H15z"/></mask><g mask="url(#b)"><path fill="#fff" d="M15.133 132.681v-18.576c-.806-8.634 1.165-25.76 31.703-27.892 28.048-1.958 34.017-5.912 48.717-31.682 12.1-21.214 30.573-21.615 47.49-21.983 2.216-.049 4.406-.096 6.551-.19 11.369-.497 48.487-.556 73.906-.357C252 32 241 29.71 241 40.5v183.786c0 10.888-8.854 19.714-19.775 19.714H34.775c-10.921 0-19.775-8.826-19.775-19.714v-91.606z"/></g><defs><filter id="a" width="94.25" height="94.25" x=".875" y=".875" color-interpolation-filters="sRGB" filterUnits="userSpaceOnUse"><feFlood flood-opacity="0" result="BackgroundImageFix"/><feBlend in="SourceGraphic" in2="BackgroundImageFix" result="shape"/><feGaussianBlur result="effect1_foregroundBlur_228_4006" stdDeviation="7.063"/></filter></defs></svg>
